flaticon/army-badges/badge-6.svg

<svg xmlns="http://www.w3.org/2000/svg" width="32" height="32" viewBox="0 0 24 24">
    <path d="M 12.007812 8.398438 C 9.808594 8.398438 8.007812 10.199219 8.007812 12.398438 C 8.007812 14.601562 9.808594 16.402344 12.007812 16.402344 C 14.210938 16.402344 16.011719 14.601562 16.011719 12.398438 C 16.011719 10.199219 14.210938 8.398438 12.007812 8.398438 Z M 12.007812 15.601562 C 10.246094 15.601562 8.808594 14.160156 8.808594 12.398438 C 8.808594 10.640625 10.246094 9.199219 12.007812 9.199219 C 13.769531 9.199219 15.210938 10.640625 15.210938 12.398438 C 15.210938 14.160156 13.769531 15.601562 12.007812 15.601562 Z M 12.007812 15.601562"/>
    <path d="M 12.007812 10 C 10.6875 10 9.609375 11.078125 9.609375 12.398438 C 9.609375 12.640625 9.769531 12.800781 10.007812 12.800781 C 10.246094 12.800781 10.40625 12.640625 10.40625 12.398438 C 10.40625 11.519531 11.128906 10.800781 12.007812 10.800781 C 12.25 10.800781 12.410156 10.640625 12.410156 10.398438 C 12.410156 10.160156 12.25 10 12.007812 10 Z M 12.007812 10"/>
    <path d="M 22.652344 9.453125 C 22.691406 9.402344 22.71875 9.335938 22.730469 9.265625 L 23.28125 7.871094 C 23.332031 7.808594 23.363281 7.730469 23.371094 7.640625 L 23.972656 6.117188 C 24.015625 5.996094 24.015625 5.878906 23.933594 5.757812 C 23.855469 5.675781 23.734375 5.597656 23.613281 5.597656 L 17.609375 5.597656 C 17.449219 5.597656 17.332031 5.675781 17.210938 5.796875 L 16.003906 7.917969 C 14.945312 6.972656 13.546875 6.398438 12.007812 6.398438 C 10.460938 6.398438 9.050781 6.980469 7.988281 7.941406 L 6.765625 5.796875 C 6.6875 5.675781 6.566406 5.597656 6.40625 5.597656 L 0.402344 5.597656 C 0.285156 5.597656 0.164062 5.71875 0.0820312 5.796875 C 0.00390625 5.878906 -0.0351562 6.039062 0.0429688 6.15625 L 0.652344 7.683594 C 0.660156 7.742188 0.683594 7.792969 0.710938 7.835938 L 1.296875 9.304688 C 1.304688 9.347656 1.320312 9.386719 1.34375 9.421875 L 1.941406 10.929688 C 1.949219 10.953125 1.960938 10.980469 1.972656 11.003906 L 3.003906 13.601562 C 3.164062 14 3.40625 14.402344 3.683594 14.722656 C 4.527344 15.800781 5.804688 16.402344 7.167969 16.402344 L 7.53125 16.402344 C 8.628906 17.628906 10.226562 18.402344 12.007812 18.402344 C 13.789062 18.402344 15.386719 17.628906 16.488281 16.402344 L 16.851562 16.402344 C 18.210938 16.402344 19.492188 15.800781 20.332031 14.722656 C 20.613281 14.402344 20.851562 14 21.011719 13.601562 L 22.027344 11.035156 C 22.054688 10.992188 22.074219 10.945312 22.082031 10.894531 Z M 4.324219 14.199219 C 4.085938 13.921875 3.886719 13.601562 3.765625 13.28125 L 2.929688 11.199219 L 4.40625 11.199219 C 4.644531 11.199219 4.804688 11.039062 4.804688 10.800781 C 4.804688 10.558594 4.644531 10.398438 4.40625 10.398438 L 2.609375 10.398438 L 2.289062 9.597656 L 3.605469 9.597656 C 3.84375 9.597656 4.003906 9.4375 4.003906 9.199219 C 4.003906 8.957031 3.84375 8.796875 3.605469 8.796875 L 1.96875 8.796875 L 1.644531 8 L 3.203125 8 C 3.445312 8 3.605469 7.839844 3.605469 7.597656 C 3.605469 7.359375 3.445312 7.199219 3.203125 7.199219 L 1.324219 7.199219 L 1.003906 6.398438 L 6.167969 6.398438 L 7.4375 8.503906 C 6.542969 9.550781 6.007812 10.910156 6.007812 12.398438 C 6.007812 13.558594 6.332031 14.640625 6.898438 15.558594 C 5.886719 15.5 4.953125 14.984375 4.324219 14.199219 Z M 12.007812 17.601562 C 10.40625 17.601562 8.980469 16.886719 8.027344 15.753906 C 8.019531 15.742188 8.015625 15.730469 8.007812 15.722656 C 7.246094 14.800781 6.804688 13.601562 6.804688 12.398438 C 6.804688 12.359375 6.808594 12.316406 6.808594 12.277344 C 6.808594 12.242188 6.808594 12.210938 6.8125 12.179688 C 6.8125 12.171875 6.8125 12.164062 6.8125 12.15625 C 6.867188 10.960938 7.34375 9.777344 8.207031 8.878906 C 8.238281 8.847656 8.261719 8.808594 8.277344 8.769531 C 9.222656 7.800781 10.542969 7.199219 12.007812 7.199219 C 13.441406 7.199219 14.734375 7.78125 15.671875 8.71875 C 15.691406 8.777344 15.726562 8.832031 15.769531 8.878906 C 16.691406 9.839844 17.171875 11.078125 17.171875 12.398438 C 17.171875 13.601562 16.769531 14.800781 15.96875 15.722656 C 15.945312 15.761719 15.921875 15.804688 15.90625 15.851562 C 14.957031 16.925781 13.5625 17.601562 12.007812 17.601562 Z M 20.292969 13.320312 C 20.132812 13.640625 19.972656 13.960938 19.730469 14.242188 C 19.050781 15.042969 18.132812 15.523438 17.089844 15.601562 C 17.097656 15.589844 17.105469 15.578125 17.113281 15.566406 C 17.644531 14.707031 17.964844 13.707031 18.007812 12.628906 C 18.007812 12.617188 18.007812 12.605469 18.007812 12.597656 C 18.011719 12.53125 18.011719 12.464844 18.011719 12.398438 C 18.011719 12.351562 18.011719 12.304688 18.007812 12.257812 C 18.007812 12.238281 18.007812 12.222656 18.007812 12.207031 C 18.007812 12.175781 18.003906 12.144531 18.003906 12.113281 C 18.003906 12.09375 18.003906 12.074219 18 12.050781 C 18 12.027344 17.996094 12 17.996094 11.972656 C 17.996094 11.949219 17.992188 11.925781 17.992188 11.90625 C 17.988281 11.882812 17.988281 11.859375 17.984375 11.835938 C 17.980469 11.808594 17.980469 11.785156 17.976562 11.761719 C 17.976562 11.742188 17.972656 11.722656 17.972656 11.703125 C 17.96875 11.675781 17.964844 11.644531 17.960938 11.617188 C 17.960938 11.617188 17.960938 11.617188 17.960938 11.613281 C 17.949219 11.53125 17.9375 11.449219 17.921875 11.367188 C 17.921875 11.363281 17.921875 11.363281 17.921875 11.359375 C 17.914062 11.324219 17.910156 11.289062 17.902344 11.25 C 17.898438 11.242188 17.898438 11.234375 17.898438 11.226562 C 17.890625 11.191406 17.882812 11.15625 17.875 11.121094 C 17.871094 11.113281 17.871094 11.105469 17.871094 11.097656 C 17.863281 11.058594 17.851562 11.023438 17.84375 10.984375 C 17.84375 10.980469 17.84375 10.976562 17.839844 10.972656 C 17.621094 10.066406 17.195312 9.242188 16.617188 8.546875 L 17.851562 6.398438 L 23.011719 6.398438 L 22.699219 7.199219 L 20.8125 7.199219 C 20.574219 7.199219 20.414062 7.359375 20.414062 7.597656 C 20.414062 7.839844 20.574219 8 20.8125 8 L 22.382812 8 L 22.070312 8.796875 L 20.414062 8.796875 C 20.171875 8.796875 20.011719 8.957031 20.011719 9.199219 C 20.011719 9.4375 20.171875 9.597656 20.414062 9.597656 L 21.753906 9.597656 L 21.441406 10.398438 L 19.613281 10.398438 C 19.371094 10.398438 19.210938 10.558594 19.210938 10.800781 C 19.210938 11.039062 19.371094 11.199219 19.613281 11.199219 L 21.125 11.199219 Z M 20.292969 13.320312"/>
</svg>

<svg xmlns="http://www.w3.org/2000/svg" width="32" height="32" viewBox="0 0 24 24">
    <path d="M12.008 8.398c-2.2 0-4 1.801-4 4 0 2.204 1.8 4.004 4 4.004 2.203 0 4.004-1.8 4.004-4.004 0-2.199-1.801-4-4.004-4zm0 7.204a3.21 3.21 0 0 1-3.2-3.204c0-1.757 1.438-3.199 3.2-3.199a3.212 3.212 0 0 1 3.203 3.2 3.213 3.213 0 0 1-3.203 3.203zm0 0"/>
    <path d="M12.008 10a2.404 2.404 0 0 0-2.399 2.398c0 .243.16.403.399.403.238 0 .398-.16.398-.403 0-.878.723-1.597 1.602-1.597.242 0 .402-.16.402-.403 0-.238-.16-.398-.402-.398zm0 0"/>
    <path d="M22.652 9.453a.426.426 0 0 0 .078-.187l.551-1.395a.417.417 0 0 0 .09-.23l.602-1.524a.374.374 0 0 0-.04-.36c-.078-.081-.199-.16-.32-.16H17.61c-.16 0-.277.079-.398.2l-1.207 2.121a5.974 5.974 0 0 0-3.996-1.52 5.97 5.97 0 0 0-4.02 1.543L6.766 5.797a.413.413 0 0 0-.36-.2H.402c-.117 0-.238.122-.32.2-.078.082-.117.242-.039.36l.61 1.527c.007.058.03.109.058.152l.586 1.469a.308.308 0 0 0 .047.117l.597 1.508c.008.023.02.05.032.074l1.03 2.598c.161.398.403.8.68 1.12a4.392 4.392 0 0 0 3.485 1.68h.363a5.99 5.99 0 0 0 4.477 2 6.004 6.004 0 0 0 4.48-2h.364c1.359 0 2.64-.601 3.48-1.68.281-.32.52-.722.68-1.12l1.015-2.567a.365.365 0 0 0 .055-.14zM4.324 14.2a3.166 3.166 0 0 1-.558-.918L2.93 11.2h1.476c.239 0 .399-.16.399-.398 0-.242-.16-.403-.399-.403H2.61l-.32-.8h1.316c.239 0 .399-.16.399-.399 0-.242-.16-.402-.399-.402H1.97L1.645 8h1.558c.242 0 .402-.16.402-.402 0-.239-.16-.399-.402-.399H1.324l-.32-.8h5.164l1.27 2.105a5.968 5.968 0 0 0-1.43 3.894c0 1.16.324 2.243.89 3.16-1.011-.058-1.945-.574-2.574-1.359zm7.684 3.403a5.178 5.178 0 0 1-3.98-1.848c-.008-.012-.012-.024-.02-.031a5.283 5.283 0 0 1-1.203-3.325c0-.039.004-.082.004-.12 0-.036 0-.067.003-.098v-.024A5.076 5.076 0 0 1 8.207 8.88a.328.328 0 0 0 .07-.11 5.193 5.193 0 0 1 3.73-1.57c1.434 0 2.727.582 3.665 1.52.02.058.055.113.098.16.921.96 1.402 2.2 1.402 3.52 0 1.203-.402 2.402-1.203 3.324a.657.657 0 0 0-.063.129 5.185 5.185 0 0 1-3.898 1.75zm8.285-4.282c-.16.32-.32.64-.563.922a3.787 3.787 0 0 1-2.64 1.36l.023-.036c.532-.859.852-1.859.895-2.937v-.031c.004-.067.004-.133.004-.2 0-.046 0-.093-.004-.14v-.051c0-.031-.004-.062-.004-.094 0-.02 0-.039-.004-.062 0-.024-.004-.051-.004-.078 0-.024-.004-.047-.004-.067-.004-.023-.004-.047-.008-.07-.004-.027-.004-.05-.007-.074 0-.02-.004-.04-.004-.059l-.012-.086v-.004a5.366 5.366 0 0 0-.04-.246v-.008c-.007-.035-.01-.07-.019-.109-.004-.008-.004-.016-.004-.023l-.023-.106c-.004-.008-.004-.016-.004-.023-.008-.04-.02-.075-.027-.114 0-.004 0-.007-.004-.011a5.993 5.993 0 0 0-1.223-2.426l1.235-2.149h5.16l-.313.801h-1.887c-.238 0-.398.16-.398.399 0 .242.16.402.398.402h1.57l-.312.797h-1.656c-.242 0-.402.16-.402.402 0 .239.16.399.402.399h1.34l-.313.8h-1.828c-.242 0-.402.16-.402.403 0 .238.16.398.402.398h1.512zm0 0"/>
</svg>
